packages/ui/public/icons/edit.svg

<svg width="24" height="24" viewBox="0 0 24 24" fill="none" xmlns="http://www.w3.org/2000/svg">
<path opacity="0.4" d="M11 4H6.8C5.11984 4 4.27976 4 3.63803 4.32698C3.07354 4.6146 2.6146 5.07354 2.32698 5.63803C2 6.27976 2 7.11984 2 8.8V17.2C2 18.8802 2 19.7202 2.32698 20.362C2.6146 20.9265 3.07354 21.3854 3.63803 21.673C4.27976 22 5.11984 22 6.8 22H15.2C16.8802 22 17.7202 22 18.362 21.673C18.9265 21.3854 19.3854 20.9265 19.673 20.362C20 19.7202 20 18.8802 20 17.2V13" stroke="white" stroke-width="2" stroke-linecap="round" stroke-linejoin="round"/>
<path d="M8 14.3218C8 13.8326 8 13.588 8.05526 13.3578C8.10425 13.1537 8.18506 12.9587 8.29472 12.7797C8.4184 12.5779 8.59136 12.4049 8.93726 12.059L18.5 2.49632C19.3284 1.66789 20.6716 1.6679 21.5 2.49632C22.3284 3.32475 22.3284 4.6679 21.5 5.49632L11.9373 15.059C11.5914 15.4049 11.4184 15.5779 11.2166 15.7016C11.0376 15.8112 10.8425 15.892 10.6385 15.941C10.4083 15.9963 10.1637 15.9963 9.67454 15.9963H8V14.3218Z" stroke="white" stroke-width="2" stroke-linecap="round" stroke-linejoin="round"/>
</svg>

<svg width="24" height="24" fill="none" xmlns="http://www.w3.org/2000/svg"><path opacity=".4" d="M11 4H6.8c-1.68 0-2.52 0-3.162.327a3 3 0 0 0-1.311 1.311C2 6.28 2 7.12 2 8.8v8.4c0 1.68 0 2.52.327 3.162a3 3 0 0 0 1.311 1.311C4.28 22 5.12 22 6.8 22h8.4c1.68 0 2.52 0 3.162-.327a3 3 0 0 0 1.311-1.311C20 19.72 20 18.88 20 17.2V13" stroke="#fff" stroke-width="2" stroke-linecap="round" stroke-linejoin="round"/><path d="M8 14.322c0-.49 0-.734.055-.964a2 2 0 0 1 .24-.578c.123-.202.296-.375.642-.721L18.5 2.496a2.121 2.121 0 0 1 3 3l-9.563 9.563c-.346.346-.519.519-.72.643-.18.11-.375.19-.579.239-.23.055-.474.055-.963.055H8v-1.674Z" stroke="#fff" stroke-width="2" stroke-linecap="round" stroke-linejoin="round"/></svg>
